X: 84
T:Soldier's Joy
M:4/4
L:1/8
Q:100
C:Traditional
R:Reel
K:D
dB|:"D"AFDF AFDF|A2 [df][df] [d2f2] cB|AFDF AFDF|"A"G2 [EA][EA][E2A2]FG|
!
"D"AFDF AFDF| A2 [df][df][d2f2] eg|fafd "A"egec|[1"D"dBAF D2 dB:|[2"D"dB
AF D2de||!
"D"f2 fd fagf|"A"e2 ec egfe|"D"f2 fd fagf|"A"edcB A2 de|!
"D"f2 fd fagf|"A"e2 ec egfe|"D"fafd "A"egec|"D"dBAF D4|]

